packages/katcn/src/icons/svg/usersGroup-solid.svg

<svg width="24" height="25" viewBox="0 0 24 25" fill="none" xmlns="http://www.w3.org/2000/svg">
<path d="M6.39999 11.1761C6.39999 11.9761 6.59999 12.7761 6.89999 13.4761H2.79999C2.19999 13.4761 1.59999 13.1761 1.29999 12.6761C0.999993 12.0761 0.899993 11.4761 1.09999 10.9761C1.49999 9.97607 2.29999 9.17607 3.19999 8.67607C2.79999 8.17607 2.49999 7.47607 2.49999 6.77607C2.49999 5.27607 3.79999 3.97607 5.29999 3.97607C6.89999 3.97607 8.09999 5.27607 8.09999 6.77607C8.09999 6.87607 8.09999 7.07607 8.09999 7.17607C7.09999 8.17607 6.39999 9.57607 6.39999 11.1761Z" fill="black"/>
<path d="M22.7 12.5761C22.4 13.0761 21.8 13.3761 21.2 13.3761H17.1C17.4 12.6761 17.6 11.8761 17.6 11.0761C17.6 9.4761 17 8.0761 15.9 7.0761C15.9 6.9761 15.9 6.7761 15.9 6.6761C15.9 5.0761 17.2 3.8761 18.7 3.8761C20.2 3.8761 21.5 5.1761 21.5 6.6761C21.5 7.3761 21.2 8.0761 20.8 8.5761C21.7 9.1761 22.4 9.9761 22.9 10.9761C23.1 11.4761 23 12.0761 22.7 12.5761Z" fill="black"/>
<path d="M14.4 14.376C15.4 13.676 16.1 12.476 16.1 11.076C16.1 8.87605 14.3 7.07605 12.1 7.07605C9.90001 7.07605 8.00001 8.97605 8.00001 11.176C8.00001 12.476 8.70001 13.676 9.70001 14.476C7.90001 15.076 6.50001 16.4761 5.70001 18.2761C5.40001 18.9761 5.50001 19.776 5.90001 20.476C6.40001 21.176 7.10001 21.576 7.90001 21.576H16.1C16.9 21.576 17.7 21.176 18.1 20.476C18.5 19.776 18.6 18.9761 18.3 18.2761C17.6 16.3761 16.1 15.076 14.4 14.376Z" fill="black"/>
</svg>

<svg xmlns="http://www.w3.org/2000/svg" fill="none" viewBox="0 0 24 25"><path fill="#000" d="M6.4 11.176c0 .8.2 1.6.5 2.3H2.8c-.6 0-1.2-.3-1.5-.8-.3-.6-.4-1.2-.2-1.7.4-1 1.2-1.8 2.1-2.3-.4-.5-.7-1.2-.7-1.9 0-1.5 1.3-2.8 2.8-2.8 1.6 0 2.8 1.3 2.8 2.8v.4c-1 1-1.7 2.4-1.7 4m16.3 1.4c-.3.5-.9.8-1.5.8h-4.1c.3-.7.5-1.5.5-2.3 0-1.6-.6-3-1.7-4v-.4c0-1.6 1.3-2.8 2.8-2.8s2.8 1.3 2.8 2.8c0 .7-.3 1.4-.7 1.9q1.35.9 2.1 2.4c.2.5.1 1.1-.2 1.6m-8.3 1.8c1-.7 1.7-1.9 1.7-3.3 0-2.2-1.8-4-4-4s-4.1 1.9-4.1 4.1c0 1.3.7 2.5 1.7 3.3-1.8.6-3.2 2-4 3.8-.3.7-.2 1.5.2 2.2.5.7 1.2 1.1 2 1.1h8.2c.8 0 1.6-.4 2-1.1s.5-1.5.2-2.2c-.7-1.9-2.2-3.2-3.9-3.9"/></svg>
